X:1
T:Wanderlied
T:Wanderlied
T:Karl maria von Weber
C:Karl maria von Weber
%%score [ 1 2 3 4 ]
L:1/8
Q:1/4=80
M:3/4
K:Eb
V:1 treble-8 nm="Tenor I"
V:2 treble-8 nm="Tenor II"
V:3 bass nm="Bass I"
V:4 bass nm="Bass II"
V:1
 x4 ee!p! |!<(! e3!<)! e e g/f/ |!>(! e2!>)!!<(! d!<)!"^cresc." z B/e/ e/g/ | %3
w: Schö- ne|Ah- nung ist er- *|glom- men, Früh- * lings- *|
!f! g3 a/g/ f/e/!>(! f/g/!>)! | e2 z2!p! dd | (!>!f2 e)d dd | (!>!f>e) !wedge!c2"^cresc." d e/f/ | %7
w: a- dem * weht * im *|Hain. Phi- lo-|me- * le ist ge-|kom- * men, jun- ges *|
!f! g2- g/f/ e/d/!>(! cf!>)! |"^dolce" B2 z2!pp! BB | B3 g/f/ f/e/ d/e/ | f2 B2 B/d/ d/f/ | %11
w: Grün * * be- * laubt die|Mai'n. Blü- ten|weiss und * ro- * sig *|ma- len sich * an *|
 f3!<)!!<(! =e/f/ a g/f/ |!>(! f2!>)! B z!f! BB | e3 e!<(! ee!<)! |!ff! !^!^f4 !wedge!ed | %15
w: mil- der * Son- ne *|Strah- len, Freu- de|winkt und je- de|Brust öff- net|
 b3 a/g/ g/f/!>(! e/d/!>)! | e2 z2 z!f! e |!>(! g4 f2!>)! | !fermata!e2 z2 |] %19
w: sich der * neu- * en *|Luft, der|neu- en|Luft.|
V:2
 x4 GA!p! |!<(! B3!<)! =B cc |!>(! A2!>)!!<(! A!<)!"^cresc." z G/B/ B/e/ |!f! e B2 e d!>(!d!>)! | %4
w: Schö- ne|Ah- nung ist er-|glom- men, Früh- * lings- *|a- * dem weht im|
 B2 z2!p! BB | !>!c3 B BB | !>!c2 !wedge!=A2"^cresc." B c/d/ |!f! e2- e/d/ c/B/!>(! =AA!>)! | %8
w: Hain. Phi- lo-|me- le ist ge-|kom- men, jun- ges *|Grün * * be- * laubt die|
"^dolce" B2 z2 z2 |!pp! !wedge!B!wedge!B !wedge!B!wedge!B !wedge!B!wedge!B | %10
w: Mai'n.|Blü- ten weiss und ro- sig|
 !wedge!d!wedge!d !wedge!d!wedge!d !wedge!d!wedge!d | %11
w: ma- len sich an mil- der|
 !wedge!d!wedge!d !wedge!d!wedge!d !wedge!d!wedge!d |!>(! d2!>)! d z!f! BB | B3 B!<(! BB!<)! | %14
w: Son- ne, mil- der Son- ne|Strah- len, Freu- de|winkt und je- de|
!ff! !^!e4 !wedge!=AA | B e2 e d!>(!A!>)! | G2 z2 z!f! B |!>(! e4 d2!>)! | !fermata!B2 z2 |] %19
w: Brust öff- net|sich * der neu- en|Luft, der|neu- en|Luft.|
V:3
 x4 E,F,!p! |!<(! G,3!<)! G, A,A, |!>(! F,2!>)!!<(! F,!<)!"^cresc." z E,/G,/ G,/B,/ | %3
w: Schö- ne|Ah- nung ist er-|glom- men, Früh- * lings- *|
!f! B,E- E/D/ C/B,/ A,/G,/!>(! A,/B,/!>)! | G,2 z2!p! F,F, | (!>!F,2 =A,)F, F,F, | %6
w: a- * * * dem * weht * im *|Hain. Phi- lo-|me- * le ist ge-|
 !>!F,2 !wedge!F,2"^cresc." B, =A,/_A,/ |!f! G,B,- B,G,!>(! F,E,!>)! |"^dolce" D,2 z2 z2 | %9
w: kom- men, jun- ges *|Grün * * be- laubt die|Mai'n.|
!pp! !wedge!G,!wedge!G, !wedge!G,!wedge!G, !wedge!G,!wedge!G, | %10
w: Blü- ten weiss und ro- sig|
 !wedge!A,!wedge!A, !wedge!A,!wedge!A, !wedge!A,!wedge!A, | %11
w: ma- len sich an mil- der|
 !wedge!A,!wedge!A, !wedge!A,!wedge!A, !wedge!F,!wedge!A, |!>(! A,2!>)! A, z!f! B,G, | %13
w: Son- ne, mil- der Son- ne|Strah- len, Freu- de|
 G,3 G,!<(! ^F,F,!<)! |!ff! !^!=B,4 !wedge!^F,F, | G,3 G, A,!>(!F,!>)! | G,2 z2 z2!f! | %17
w: winkt und je- de|Brust öff- net|sich der neu- en|Luft,|
 z G, B,2 A,2 | !fermata!G,2 z2 |] %19
w: der neu- en|Luft.|
V:4
 x4 E,E,!p! |!<(! E,3!<)! E, A,,F,, |!>(! B,,2!>)!!<(! B,,2!<)!"^cresc." E,E, | %3
w: Schö- ne|Ah- nung ist er-|glom- men, Früh- lings-|
!f! E,3 E, B,,!>(!B,,!>)! | E,2 z2!p! B,,B,, | !>!=A,,>C, F,B,, B,,B,, | %6
w: a- dem weht im|Hain. Phi- lo-|me- * * le ist ge-|
 !>!=A,,>C, !wedge!F,2"^cresc." B,,B,, |!f! E,3 E,/=E,/!>(! F,F,,!>)! |"^dolce" B,,2 z2 z2 | %9
w: kom- * men, jun- ges|Grün be- * laubt die|Mai'n.|
!pp! !wedge!E,!wedge!E, !wedge!E,!wedge!E, !wedge!E,!wedge!E, | %10
w: Blü- ten weiss und ro- sig|
 !wedge!B,,!wedge!B,, !wedge!B,,!wedge!B,, !wedge!B,,!wedge!B,, | %11
w: ma- len sich an mil- der|
 !wedge!B,,!wedge!B,, !wedge!B,,!wedge!B,, !wedge!B,,!wedge!B,, |!>(! B,,2!>)! B,, z!f! B,B, | %13
w: Son- ne, mil- der Son- ne|Strah- len, Freu- de|
 E,3 E,!<(! E,E,!<)! |!ff! !^!=B,,4 !wedge!B,,B,, | B,,3 B,, B,,B,, | E,!f! E2 B, G,E, | %17
w: winkt und je- de|Brust öff- net|sich der neu- en|Luft, öff- net sich der|
!>(! B,,4 B,,2!>)! | !fermata!E,,2 z2 |] %19
w: neu- en|Luft.|

